elements/rpg-character/lib/hat/watermelon.svg

<svg xmlns="http://www.w3.org/2000/svg" fill="none" width="113" height="142" viewBox="0 0 113 142"><path d="M13 32H8v40h5v5h10V57h65v20h10v-5h5V32h-5V22h-5V12H83V7H73V2H38v5H28v5H18v10h-5v10Zm0 0h5V22h5v-5h5v-5h10V7h35v5h10v5h5v5h5v10h5v40h-5V57h-5v-5H23v5h-5v15h-5V32Z" fill="#000" fill-rule="evenodd" clip-rule="evenodd"/><path d="M13 32h5V22h5v-5h5v-5h10V7h35v5h10v5h5v5h5v10h5v40h-5V57h-5v-5H23v5h-5v15h-5V32Z" fill="#2FAF5B"/><path d="M18 72h-5V32h5V22h5v-5h5v-5h5v5h-5v15h-5v25h-5v15Z" fill="#108037"/><path d="M18 72h-5V32h5V22h5v-5h5v-5h5v5h-5v15h-5v25h-5v15Z" fill="#108037"/><path d="M18 72h-5V32h5V22h5v-5h5v-5h5v5h-5v15h-5v25h-5v15Zm75 0h5V32h-5V22h-5v-5h-5v-5h-5v5h5v15h5v25h5v15Z" fill="#108037"/><path d="M93 72h5V32h-5V22h-5v-5h-5v-5h-5v5h5v15h5v25h5v15Z" fill="#108037"/><path d="M93 72h5V32h-5V22h-5v-5h-5v-5h-5v5h5v15h5v25h5v15ZM33 52h10V42h5V12h5V7h-5v5h-5v10h-5v15h-5v15Z" fill="#108037"/><path d="M33 52h10V42h5V12h5V7h-5v5h-5v10h-5v15h-5v15Z" fill="#108037"/><path d="M33 52h10V42h5V12h5V7h-5v5h-5v10h-5v15h-5v15Zm45 0V37h-5V22h-5V12h-5V7h-5v5h5v30h5v10h10Z" fill="#108037"/><path d="M78 52V37h-5V22h-5V12h-5V7h-5v5h5v30h5v10h10Z" fill="#108037"/><path d="M78 52V37h-5V22h-5V12h-5V7h-5v5h5v30h5v10h10Z" fill="#108037"/><path d="M73 32h5v5h-5v-5Zm15 9h-5v5h5v-5Zm-35-9v-5h-5v5h5Zm0 10h5v-5h-5v5ZM33 32v5h5v-5h-5Zm-5 15h-5v-5h5v5Z" fill="#4CC776"/><path d="M43 7v5h-5v5h-5v5h-5v5h5v-5h5v-5h5v-5h5v5h5v5h5v5h5v-5h-5v-5h5v-5h5v5h5v5h5v5h5v-5h-5v-5h-5v-5h-5V7h-5v5h-5V7h-5v5h-5V7h-5Zm10 5h5v5h-5v-5Z" fill="#4CC776" fill-rule="evenodd" clip-rule="evenodd"/><path d="M48 17h-5v5h5v-5Zm-15-5v5h-5v5h-5v-5h5v-5h5ZM18 32h5v-5h-5v5Zm50-15h-5v5h5v-5Zm10 0v-5h5v5h5v5h5v5h-5v5h5v5h-5v-5h-5v-5h5v-5h-5v-5h-5Zm15 29v-5h5v5h-5Zm-5 11v-5h5v5h-5ZM63 32v-5h5v5h-5Zm5 10v-5h5v5h-5ZM43 32h-5v-5h5v5Zm-25 5v5h-5v-5h5Zm0 15h5v5h-5v-5Zm-5 15v5h5v-5h-5Zm25-25h5v-5h-5v5Zm0 5h-5v5h5v-5Zm35 5v-5h5v5h-5ZM53 12h-5V7h5v5Z" fill="#11642E"/></svg>

<svg width="113" height="142" viewBox="0 0 113 142" fill="none" xmlns="http://www.w3.org/2000/svg">
<path fill-rule="evenodd" clip-rule="evenodd" d="M13 32H8V72H13V77H23V57H88V77H98V72H103V32H98V22H93V12H83V7H73V2H38V7H28V12H18V22H13V32ZM13 32H18V22H23V17H28V12H38V7H73V12H83V17H88V22H93V32H98V72H93V57H88V52H23V57H18V72H13V32Z" fill="black"/>
<path d="M13 32H18V22H23V17H28V12H38V7H73V12H83V17H88V22H93V32H98V72H93V57H88V52H23V57H18V72H13V32Z" fill="#2FAF5B"/>
<path d="M18 72H13V32H18V22H23V17H28V12H33V17H28V32H23V57H18V72Z" fill="#108037"/>
<path d="M18 72H13V32H18V22H23V17H28V12H33V17H28V32H23V57H18V72Z" fill="#108037"/>
<path d="M18 72H13V32H18V22H23V17H28V12H33V17H28V32H23V57H18V72Z" fill="#108037"/>
<path d="M93 72H98V32H93V22H88V17H83V12H78V17H83V32H88V57H93V72Z" fill="#108037"/>
<path d="M93 72H98V32H93V22H88V17H83V12H78V17H83V32H88V57H93V72Z" fill="#108037"/>
<path d="M93 72H98V32H93V22H88V17H83V12H78V17H83V32H88V57H93V72Z" fill="#108037"/>
<path d="M33 52H43V42H48V12H53V7H48V12H43V22H38V37H33V52Z" fill="#108037"/>
<path d="M33 52H43V42H48V12H53V7H48V12H43V22H38V37H33V52Z" fill="#108037"/>
<path d="M33 52H43V42H48V12H53V7H48V12H43V22H38V37H33V52Z" fill="#108037"/>
<path d="M78 52V37H73V22H68V12H63V7H58V12H63V42H68V52H78Z" fill="#108037"/>
<path d="M78 52V37H73V22H68V12H63V7H58V12H63V42H68V52H78Z" fill="#108037"/>
<path d="M78 52V37H73V22H68V12H63V7H58V12H63V42H68V52H78Z" fill="#108037"/>
<path d="M73 32H78V37H73V32Z" fill="#4CC776"/>
<path d="M88 41H83V46H88V41Z" fill="#4CC776"/>
<path d="M53 32V27H48V32H53Z" fill="#4CC776"/>
<path d="M53 42H58V37H53V42Z" fill="#4CC776"/>
<path d="M33 32V37H38V32H33Z" fill="#4CC776"/>
<path d="M28 47H23V42H28V47Z" fill="#4CC776"/>
<path fill-rule="evenodd" clip-rule="evenodd" d="M43 7V12H38V17H33V22H28V27H33V22H38V17H43V12H48V17H53V22H58V27H63V22H58V17H63V12H68V17H73V22H78V27H83V22H78V17H73V12H68V7H63V12H58V7H53V12H48V7H43ZM53 12H58V17H53V12Z" fill="#4CC776"/>
<path d="M48 17H43V22H48V17Z" fill="#11642E"/>
<path d="M33 12V17H28V22H23V17H28V12H33Z" fill="#11642E"/>
<path d="M18 32H23V27H18V32Z" fill="#11642E"/>
<path d="M68 17H63V22H68V17Z" fill="#11642E"/>
<path d="M78 17V12H83V17H88V22H93V27H88V32H93V37H88V32H83V27H88V22H83V17H78Z" fill="#11642E"/>
<path d="M93 46V41H98V46H93Z" fill="#11642E"/>
<path d="M88 57V52H93V57H88Z" fill="#11642E"/>
<path d="M63 32V27H68V32H63Z" fill="#11642E"/>
<path d="M68 42V37H73V42H68Z" fill="#11642E"/>
<path d="M43 32H38V27H43V32Z" fill="#11642E"/>
<path d="M18 37V42H13V37H18Z" fill="#11642E"/>
<path d="M18 52H23V57H18V52Z" fill="#11642E"/>
<path d="M13 67V72H18V67H13Z" fill="#11642E"/>
<path d="M38 42H43V37H38V42Z" fill="#11642E"/>
<path d="M38 47H33V52H38V47Z" fill="#11642E"/>
<path d="M73 52V47H78V52H73Z" fill="#11642E"/>
<path d="M53 12H48V7H53V12Z" fill="#11642E"/>
</svg>
